X:1
T:Alexandra West
T:Alexandra West
T:Anselm Lingnau
C:Anselm Lingnau
L:1/8
M:4/4
K:C
V:1 treble 
V:1
 eve!p! ad eef uave beea gea!p!af daceuee de e.EF^F |"C" G2 e d2 c z2 | G3"G7" EF^F z2 | %3
"C" G2 e d2 c z2 |"Dm" f3 A2 c z2 |"G" B2 d dB^A z2 |"Am" =A2 c A2 ^G z2 |"G" =G2 G BA^G z2 | %8
 =G3"G" EF^F z2 |"C" G2 e d2 c z2 | G3"G7" EF^F z2 |"C" G2 e d2 c z2 |"F" a3 c'b_b z2 | %13
 a2 a fga z2 |"Em" g2 g"Am" e2 g z2 |"Dm" agf"G7" efd z2 |"C" c3 || cB_B |"F" A2 f f2 d z2 | %19
"C" e3 cB_B z2 |"F" A2 a c'ba z2 |"C" g3"C7" c'b_b z2 |"F" a2 a"Dm" fga z2 |"C" g2 g e2 g z2 | %24
"Dm" f2 d' d'2 c' z2 |"G" b3 g^fg z2 |"F" a2 a c'ba z2 |"C" g3"C7" cB_B z2 |"F" A2 A"Dm" FGA z2 | %29
"C" G3"G" EF^F z2 |"C" G2 e d2 c z2 |"Am" c'b_b"F" agf z2 |"Dm" agf"G7" efd z2 |"C" c3 |] %34

